X:11
T:E Para Lou Loup
R:Bourre
M:3/8
L:1/8
N:La Bourre 4th edition 1929, page 28
Z:Steve Mansfield www.lesession.co.uk April 2012
K:Am
A | c e d | e/ d/ c A | c e d |
e2 A | c e d | e/ d/ c A | c e d |
e2 A | c e d  | B B d | c/ B/ A c |
B E2 | c e d | B B d | c/ B/ A G | A3 |]
<end>
<start>
